src/assets/img/logo-long.svg

<svg width="247" height="24" viewBox="0 0 247 24" fill="none" xmlns="http://www.w3.org/2000/svg">
<g filter="url(#filter0_d_30_602)">
<path d="M6.5 21V18H9.5V21H6.5ZM3.5 18V12H6.5V18H3.5ZM9.5 18V12H12.5V18H9.5ZM0.5 12V0H3.5V12H0.5ZM12.5 12V0H15.5V12H12.5ZM18.5 21V18H21.5V3H18.5V0H27.5V3H24.5V18H27.5V21H18.5ZM30.5 21V0H33.5V18H45.5V21H30.5ZM48.5 21V0H51.5V18H63.5V21H48.5ZM66.5 21V3H69.5V6H78.5V3H81.5V21H78.5V9H69.5V21H66.5ZM69.5 3V0H78.5V3H69.5ZM87.5 21V18H96.5V21H87.5ZM96.5 18V9H93.5V6H99.5V18H96.5ZM84.5 18V3H87.5V18H84.5ZM87.5 3V0H99.5V3H87.5ZM102.5 21V0H117.5V3H105.5V6H111.5V9H105.5V18H117.5V21H102.5ZM129.5 21V18H138.5V21H129.5ZM138.5 18V15H141.5V18H138.5ZM126.5 18V3H129.5V18H126.5ZM138.5 6V3H141.5V6H138.5ZM129.5 3V0H138.5V3H129.5ZM144.5 21V3H147.5V6H156.5V3H159.5V21H156.5V9H147.5V21H144.5ZM147.5 3V0H156.5V3H147.5ZM174.5 21V9H177.5V21H174.5ZM174.5 6V3H177.5V6H174.5ZM162.5 21V0H174.5V3H165.5V6H174.5V9H165.5V21H162.5ZM192.5 21V9H195.5V21H192.5ZM192.5 6V3H195.5V6H192.5ZM180.5 21V0H192.5V3H183.5V6H192.5V9H183.5V21H180.5ZM198.5 21V18H201.5V3H198.5V0H207.5V3H204.5V18H207.5V21H198.5ZM210.5 21V0H225.5V3H213.5V6H219.5V9H213.5V18H225.5V21H210.5ZM240.5 21V9H243.5V21H240.5ZM240.5 6V3H243.5V6H240.5ZM228.5 21V0H240.5V3H231.5V6H240.5V9H231.5V21H228.5Z" fill="#FCFCFC"/>
</g>
<defs>
<filter id="filter0_d_30_602" x="0.5" y="0" width="245" height="23" filterUnits="userSpaceOnUse" color-interpolation-filters="sRGB">
<feFlood flood-opacity="0" result="BackgroundImageFix"/>
<feColorMatrix in="SourceAlpha" type="matrix" values="0 0 0 0 0 0 0 0 0 0 0 0 0 0 0 0 0 0 127 0" result="hardAlpha"/>
<feOffset dx="2" dy="2"/>
<feComposite in2="hardAlpha" operator="out"/>
<feColorMatrix type="matrix" values="0 0 0 0 0.219608 0 0 0 0 0.219608 0 0 0 0 0.219608 0 0 0 1 0"/>
<feBlend mode="normal" in2="BackgroundImageFix" result="effect1_dropShadow_30_602"/>
<feBlend mode="normal" in="SourceGraphic" in2="effect1_dropShadow_30_602" result="shape"/>
</filter>
</defs>
</svg>

<svg width="247" height="24" fill="none" xmlns="http://www.w3.org/2000/svg"><g filter="url(#a)"><path d="M6.5 21v-3h3v3h-3Zm-3-3v-6h3v6h-3Zm6 0v-6h3v6h-3Zm-9-6V0h3v12h-3Zm12 0V0h3v12h-3Zm6 9v-3h3V3h-3V0h9v3h-3v15h3v3h-9Zm12 0V0h3v18h12v3h-15Zm18 0V0h3v18h12v3h-15Zm18 0V3h3v3h9V3h3v18h-3V9h-9v12h-3Zm3-18V0h9v3h-9Zm18 18v-3h9v3h-9Zm9-3V9h-3V6h6v12h-3Zm-12 0V3h3v15h-3Zm3-15V0h12v3h-12Zm15 18V0h15v3h-12v3h6v3h-6v9h12v3h-15Zm27 0v-3h9v3h-9Zm9-3v-3h3v3h-3Zm-12 0V3h3v15h-3Zm12-12V3h3v3h-3Zm-9-3V0h9v3h-9Zm15 18V3h3v3h9V3h3v18h-3V9h-9v12h-3Zm3-18V0h9v3h-9Zm27 18V9h3v12h-3Zm0-15V3h3v3h-3Zm-12 15V0h12v3h-9v3h9v3h-9v12h-3Zm30 0V9h3v12h-3Zm0-15V3h3v3h-3Zm-12 15V0h12v3h-9v3h9v3h-9v12h-3Zm18 0v-3h3V3h-3V0h9v3h-3v15h3v3h-9Zm12 0V0h15v3h-12v3h6v3h-6v9h12v3h-15Zm30 0V9h3v12h-3Zm0-15V3h3v3h-3Zm-12 15V0h12v3h-9v3h9v3h-9v12h-3Z" fill="#FCFCFC"/></g><defs><filter id="a" x=".5" y="0" width="245" height="23" filterUnits="userSpaceOnUse" color-interpolation-filters="sRGB"><feFlood flood-opacity="0" result="BackgroundImageFix"/><feColorMatrix in="SourceAlpha" values="0 0 0 0 0 0 0 0 0 0 0 0 0 0 0 0 0 0 127 0" result="hardAlpha"/><feOffset dx="2" dy="2"/><feComposite in2="hardAlpha" operator="out"/><feColorMatrix values="0 0 0 0 0.219608 0 0 0 0 0.219608 0 0 0 0 0.219608 0 0 0 1 0"/><feBlend in2="BackgroundImageFix" result="effect1_dropShadow_30_602"/><feBlend in="SourceGraphic" in2="effect1_dropShadow_30_602" result="shape"/></filter></defs></svg>
